X:520
T: Jinri fanqu dabianyang
N: C1938
O: China, Henan Xihua
S: IV, 117]
R: Xiaodiao, Shiersi]
M: 2/4
L: 1/16
K: F
c2c2dcdf | c3Ac4 | c2dfc2A2 | GAGFG4
G3Ac2c2 | f3dc2A2 | GGAAG2D2 | F2C6
G3Ac4 | f2d2c4 | A2G2A2F2 | G8
c3Ac2d2 | f2d2c2A2 | G2A2G2D2 | F2C6

